src/assets/outline/MessageSquare.svg

<svg width="24" height="24" viewBox="0 0 24 24"  xmlns="http://www.w3.org/2000/svg">
<path d="M11.9997 19.3498C11.4797 19.3498 10.9897 19.0898 10.6397 18.6298L9.72974 17.4198H9.47974C6.76974 17.4198 4.96973 16.6498 4.96973 12.9098V9.76974C4.96973 7.08974 6.33971 5.49976 8.82971 5.28976C9.01971 5.26976 9.24974 5.25977 9.47974 5.25977H14.5097C17.4197 5.25977 19.0197 6.85974 19.0197 9.76974V12.9098C19.0197 13.1498 19.0097 13.3698 18.9797 13.5898C18.7697 16.0498 17.1797 17.4198 14.4997 17.4198H14.2497L13.3397 18.6298C13.0097 19.0898 12.5197 19.3498 11.9997 19.3498ZM9.48972 6.74976C9.31972 6.74976 9.14972 6.75975 8.98972 6.77975C7.23972 6.92975 6.46973 7.84974 6.46973 9.76974V12.9098C6.46973 15.4898 7.21974 15.9198 9.47974 15.9198H9.78973C10.1897 15.9198 10.6397 16.1397 10.8897 16.4597L11.8397 17.7298C11.8997 17.8098 11.9597 17.8498 11.9897 17.8498C12.0197 17.8498 12.0797 17.8098 12.1397 17.7298L13.0797 16.4698C13.3397 16.1198 13.7497 15.9198 14.1797 15.9198H14.4897C16.4097 15.9198 17.3297 15.1497 17.4797 13.4297C17.4997 13.2397 17.5097 13.0797 17.5097 12.8997V9.75977C17.5097 7.67977 16.5797 6.74976 14.4997 6.74976H9.48972Z" />
<path d="M15 22.75H9C3.57 22.75 1.25 20.43 1.25 15V9C1.25 3.57 3.57 1.25 9 1.25H15C20.43 1.25 22.75 3.57 22.75 9V15C22.75 20.43 20.43 22.75 15 22.75ZM9 2.75C4.39 2.75 2.75 4.39 2.75 9V15C2.75 19.61 4.39 21.25 9 21.25H15C19.61 21.25 21.25 19.61 21.25 15V9C21.25 4.39 19.61 2.75 15 2.75H9Z" />
</svg>

<?xml version="1.0" encoding="UTF-8"?>
<svg width="24" height="24" viewBox="0 0 24 24" xmlns="http://www.w3.org/2000/svg">
 <path d="m12 19.35c-0.52 0-1.01-0.26-1.36-0.72l-0.90996-1.21h-0.25c-2.71 0-4.51-0.77-4.51-4.51v-3.1401c0-2.68 1.37-4.27 3.86-4.48 0.19-0.02 0.42003-0.02999 0.65003-0.02999h5.03c2.91 0 4.51 1.6 4.51 4.51v3.1401c0 0.24-0.01 0.46-0.04 0.68-0.21 2.46-1.8 3.83-4.48 3.83h-0.25l-0.91 1.21c-0.33 0.46-0.82 0.72-1.34 0.72zm-2.51-12.6c-0.17 0-0.34 0.00999-0.5 0.02999-1.75 0.15-2.52 1.07-2.52 2.99v3.1401c0 2.58 0.75001 3.01 3.01 3.01h0.30999c0.39997 0 0.84997 0.2199 1.1 0.5399l0.95 1.2701c0.06 0.08 0.12 0.12 0.15 0.12s0.09-0.04 0.15-0.12l0.94-1.26c0.26-0.35 0.67-0.55 1.1-0.55h0.31c1.92 0 2.84-0.7701 2.99-2.4901 0.02-0.19 0.03-0.35 0.03-0.53v-3.1399c0-2.08-0.93-3.01-3.01-3.01h-5.01z"/>
 <path d="m15 22.75h-6c-5.43 0-7.75-2.32-7.75-7.75v-6c0-5.43 2.32-7.75 7.75-7.75h6c5.43 0 7.75 2.32 7.75 7.75v6c0 5.43-2.32 7.75-7.75 7.75zm-6-20c-4.61 0-6.25 1.64-6.25 6.25v6c0 4.61 1.64 6.25 6.25 6.25h6c4.61 0 6.25-1.64 6.25-6.25v-6c0-4.61-1.64-6.25-6.25-6.25h-6z"/>
</svg>
